X:1
T:Title
%%score ( 1 2 ) { 3 | 4 }
L:1/8
Q:1/4=110
M:4/4
K:Bb
V:1 treble nm="Grand Piano, Soprano"
V:2 treble 
V:3 bass nm="Choir Pad, Sinaloa, Hubert Main, 1886"
V:4 bass 
V:1
 [DF]2 [DF]2 [EG]2 [EG]2 | [EB]2 [EB]2 [EF]4 | [Dd]2 cB [=EA]2 [EB]2 | [Ec]4 [EF]2 z2 | %4
w: By~Hubert~Platt~Main,~1886 * * *||||
 [DF]2 [DF]2 [EG]2 [EG]2 | [EB]2 [EB]2 [EF]4 | [Dd]2 cB [=EA]2 [EB]2 | [Ec]4 [DB]2 z2 | %8
w: ||||
 [Fc]3 [Fc] [Fd]3 [_Ad] | [Ge]2 [Ee]2 [Fd]4 | [Fc]2 [CF]2 [FB]2 [FA]2 | G-[DG] [=EG]2 F4 | %12
w: ||||
 [FB]2 [Fc]2 [Fd]2 cB | [Ee]2 [Fd]2 [Fc]4 | [Ff]2 [Ge][Fd] [=Ec]2 [EB]2 | [EA]4 [DB]4- | %16
w: ||||
 [DB]4 z4 |] %17
w: |
V:2
 x8 | x8 | z2 D2 z4 | x8 | x8 | x8 | z2 D2 z4 | x8 | x8 | x8 | x8 | .F2 z2 z4 | z4 z2 D2 | x8 | %14
 x8 | x8 | x8 |] %17
V:3
 B,2 B,2 B,2 B,2 | B,2 B,2 C4 | B,2 B,2 C2 G,2 | A,4 A,2 z2 | B,2 B,2 B,2 B,2 | B,2 B,2 C4 | %6
 B,2 B,2 C2 G,2 | A,4 B,2 z2 | A,3 A, B,3 B, | B,2 B,2 B,4 | A,2 A,2 B,2 D2 | B,2 C2 A,4 | %12
 B,2 A,2 B,2 B,2 | B,2 B,2 A,4 | B,2 B,2 B,2 C2 | C4 B,4- | B,4 z4 |] %17
V:4
 B,,2 B,,2 E,2 E,2 | G,2 G,2 A,4 | z2 G,2 C,2 C,2 | F,4 F,2 z2 | B,,2 B,,2 E,2 E,2 | G,2 G,2 A,4 | %6
 z2 G,2 C,2 C,2 | F,4 B,,2 z2 | F,3 F, B,,3 B,, | E,2 G,2 z4 | F,2 E,2 D,2 B,,2 | C,2 C,2 F,4 | %12
 D,2 F,2 z2 _A,2 | G,2 z2 F,2 E,2 | D,2 E,F, G,2 C,2 | F,4 B,,4- | B,,4 z4 |] %17

